X:1
T:Hodie Christus natus est - Turini
T:#
%%score [ 1 2 3 4 ]
L:1/8
Q:1/4=90
M:4/4
K:D
V:1 treble nm="Soprano" snm="S"
V:2 treble nm="Alto" snm="A"
V:3 treble-8 nm="Tenor" snm="T"
V:4 bass nm="Bass" snm="B"
V:1
"^Hodie Christus natus est""^Gregorio Turini\n(c.1560-c.1600)" B3 B B2 B2- | BAAA A2 A2- | %2
w: Ho- di- e Chri\-|* stus na- tus est: ho\-|
 AAFA B2 AG |[M:4/4] F2 F2 F4 | BB A2 A2 BB | =c3 B A2 A2 | B2 B3 BBB | ^G2 A2 B2 BA | %8
w: * di- e Sal- va- tor ap-|pa- ru- it:|ho- di- e in ter- ra|ca- nunt An- ge-|li, ca- nunt An- ge-|li, lae- tan- tur Arch-|
 B2 F2 ^G2 A2- | AABB B2 B2 | A8 | AF (B3 ^A/^G/ A2) | B2 B3 B A2 | AF G2 A2 A2 | G2 F2 A4 | %15
w: an- ge- li: ho\-|* di- e e- xul- tant|ju-|sti, di- cen\- * * *|tes: Glo- ri- a,|Glo- ri- a in ex-|cel- sis De-|
 A2 A2 AAGF | F2 E2 FFED | ABB^A B2 B2 | AAAA B2 A2 | F2[Q:1/4=89] B2[Q:1/4=87] B2[Q:1/4=86] ^A2 | %20
w: o, Al- le- lu- ia, Al-|le- lu- ia, Al- le- lu-|ia, Al- le- lu- ia, Al-|le- lu- ia, Al- le- lu-|ia, Al- le- lu-|
[Q:1/4=84] B2 B2[Q:1/4=83] (B[Q:1/4=82]=A[Q:1/4=81]G)G[Q:1/4=83] | %21
w: ia, Al- le\- * * lu-|
[Q:1/4=80] F8[Q:1/4=79][Q:1/4=78][Q:1/4=77] |] %22
w: ia.|
V:2
 F3 G F2 G2- | GFEE F2 E2- | EFDE G2 FE |[M:4/4] C2 C2 ^D4 | FG E2 F2 GG | A2 G (G2 F/E/ F)F | %6
w: Ho- di- e Chri\-|* stus na- tus est: ho\-|* di- e Sal- va- tor ap-|pa- ru- it:|ho- di- e in ter- ra|ca- nunt An\- * * * ge-|
 G2 G3 GFF | E2 E2 G2 GE | F3 B, B,2 D2- | DCDD E2 D2 | (CA, D3 C/B,/ C2) | D2 F2 F4 | F2 F3 G F2 | %13
w: li, ca- nunt An- ge-|li, lae- tan- tur Arch-|an- ge- li: ho\-|* di- e e- xul- tant|ju\- * * * * *|sti, di- cen-|tes: Glo- ri- a,|
 ED D2 F2 F2 | (ED) D2 E4 | F4 z4 | z2 B2 ^ABGF | FE F2 F2 G2 | E2 FF G2 E2 | ^D2 F2 G2 F2 | %20
w: Glo- ri- a in ex-|cel\- * sis De-|o,|Al- le- lu- ia, Al-|le- lu- ia, Al- le-|lu- ia, Al- le- lu-|ia, Al- le- lu-|
 F3 G (GF E2- | E2 ^D)C D4 |] %22
w: ia, Al- le\- * *|* * lu- ia.|
V:3
 d3 e d2 d2- | dddc d2 c2- | ccBc d2 dB |[M:4/4][K:treble-8] B2 ^A2 B4 | de c3 cde | e3 d d2 d2 | %6
w: Ho- di- e Chri\-|* stus na- tus est: ho\-|* di- e Sal- va- tor ap-|pa- ru- it:|ho- di- e in ter- ra|ca- nunt An- ge-|
 d2 e2 d e2 ^d | e2 c2 d2 ee | e2 ^d2 e2 f2- | fegf g2 f2 | (f4 e4) | f2 d2 c4 | B2 d3 d d2 | %13
w: li, ca- nunt An- ge-|li, lae- tan- tur Arch-|an- ge- li: ho\-|* di- e e- xul- tant|ju\- *|sti, di- cen-|tes: Glo- ri- a,|
 cB B2 d2 c2 | B2 d (d2 c/B/ c2) | d2 f2 efdc | d2 B2 cdBd | cBdc d2 e d- | dcdd d2 c2 | %19
w: Glo- ri- a in ex-|cel- sis De\- * * *|o, Al- le- lu- ia, Al-|le- lu- ia, Al- le- lu-|ia, Al- le- lu- ia, Al- le\-|* lu- ia, Al- le- lu-|
 B2 ^d2 e2 c2 | ^d3 e e2 B2 | B8 |] %22
w: ia, Al- le- lu-|ia, Al- le- lu-|ia.|
V:4
 B,3 E, B,2 G,2- | G,D,A,A, D,2 A,2- | A,F,B,A, G,2 D,E, |[M:4/4] F,2 F,2 B,,2 B,2- | %4
w: Ho- di- e Chri\-|* stus na- tus est: ho\-|* di- e Sal- va- tor ap-|pa- ru- it: ho\-|
 B,E, A,3 A,G,E, | (A,>B, =C)G, D,2 D,2 | G,2 (E,>F, G,)E,B,B, | E,2 A,2 G,2 E,=C, | %8
w: * di- e in ter- ra|ca\- * * nunt An- ge-|li, ca\- * * nunt An- ge-|li, lae- tan- tur Arch-|
 B,,2 B,,2 E,2 D,2- | D,A,G,B, E,2 B,2 | (F,3 G, A,4) | D,2 D,2 F,4 | B,,2 B,3 G, D2 | %13
w: an- ge- li: ho\-|* di- e e- xul- tant|ju\- * *|sti, di- cen-|tes: Glo- ri- a,|
 A,B, G,2 D,2 F,2 | G,2 B,2 A,4 | D,2 D2 CDB,^A, | B,2 G,2 F,D,E,B, | A,G,F,F, B,2 G,2 | %18
w: Glo- ri- a in ex-|cel- sis De-|o, Al- le- lu- ia, Al-|le- lu- ia, Al- le- lu-|ia, Al- le- lu- ia, Al-|
 A,A,D,D G,2 A,2 | B,2 B,,2 E,2 F,2 | B,,B, (B,/A,/G,/F,/ E,2) E,2 | B,,8 |] %22
w: le- lu- ia, Al- le- lu-|ia, Al- le- lu-|ia, Al- le\- * * * * lu-|ia.|

